proprietary/assets/icons/infrastructuur-en-transport/snelweg-met-boom.svg

<svg height="64" viewBox="0 0 64 64" width="64" xmlns="http://www.w3.org/2000/svg"><path d="m0 0h64v64h-64z" fill="none"/><path d="m15.8947 31-10.8947 23h13l1.2895-7h5.7105v7h13l-6.6579-23zm9.1053 9h-4.4211l.9211-5h3.5z"/><path d="m27 16h-4l-2.3684 5h7.8158z"/><path d="m5 36h5l2-3.2v-3.6408l-3.9953-.7951c-.3172-.1018-.2708-.3079-.2499-.3641h26.1684c-.9374-1.4567-1.5084-3.1647-1.5981-5h-30.3251v5h3z"/><path d="m56.1466 14.0327c-1.2523-2.3954-3.7564-4.0327-6.6466-4.0327-3.2654 0-6.0356 2.0905-7.0653 5.0033-7.2377.0624-10.1741 9.342-4.3181 13.5737-2.6166 4.8397-.0665 10.4719 5.1834 11.3182.1412-.6794.2862-1.3837.4292-2.0879.7916-3.899-.0495-5.8793-.175-6.193-.1662-.4156-.0333-.5652.0685-.5867 1.4608 1.2017 1.9957 4.7898 1.8458 6.9926-.155 2.2803-1.422 13.1143-1.4583 13.9798 0 0 1.9676 2 4.9898 2s3.9898-2 3.9898-2l-.5943-12.0902c.3614.0535.7282.0902 1.1045.0902 4.1422 0 7.5-3.3578 7.5-7.5 0-1.7393-.5975-3.3359-1.5911-4.6081 6.1972-3.7985 3.8936-13.2469-3.2623-13.8592z"/></svg>

<?xml version="1.0" encoding="utf-8"?>
<!-- Generator: Adobe Illustrator 17.1.0, SVG Export Plug-In . SVG Version: 6.00 Build 0)  -->
<svg version="1.2" baseProfile="tiny" xmlns="http://www.w3.org/2000/svg" xmlns:xlink="http://www.w3.org/1999/xlink" x="0px"
	 y="0px" width="64px" height="64px" viewBox="0 0 64 64" xml:space="preserve">
<g id="_x36_4px_Boxes">
	<rect fill="none" width="64" height="64"/>
</g>
<g id="Icon">
	<g>
		<path d="M15.8947,31L5,54h13l1.2895-7H25v7h13l-6.6579-23H15.8947z M25,40h-4.4211L21.5,35H25V40z"/>
		<polygon points="27,16 23,16 20.6316,21 28.4474,21 		"/>
		<path d="M5,36h5l2-3.2v-3.6408l-3.9953-0.7951C7.6875,28.2623,7.7339,28.0562,7.7548,28h26.1684
			c-0.9374-1.4567-1.5084-3.1647-1.5981-5H2v5h3V36z"/>
		<path d="M56.1466,14.0327C54.8943,11.6373,52.3902,10,49.5,10c-3.2654,0-6.0356,2.0905-7.0653,5.0033
			c-7.2377,0.0624-10.1741,9.342-4.3181,13.5737C35.5,33.4167,38.0501,39.0489,43.3,39.8952
			c0.1412-0.6794,0.2862-1.3837,0.4292-2.0879c0.7916-3.899-0.0495-5.8793-0.175-6.193c-0.1662-0.4156-0.0333-0.5652,0.0685-0.5867
			c1.4608,1.2017,1.9957,4.7898,1.8458,6.9926C45.3135,40.3005,44.0465,51.1345,44.0102,52c0,0,1.9676,2,4.9898,2s3.9898-2,3.9898-2
			l-0.5943-12.0902C52.7569,39.9633,53.1237,40,53.5,40c4.1422,0,7.5-3.3578,7.5-7.5c0-1.7393-0.5975-3.3359-1.5911-4.6081
			C65.6061,24.0934,63.3025,14.645,56.1466,14.0327z"/>
	</g>
</g>
</svg>
